frontend/public/images/integrations/twitter-x.svg

<svg width="24" height="24" viewBox="0 0 24 24" fill="none" xmlns="http://www.w3.org/2000/svg">
<g clip-path="url(#clip0_1342_10906)">
<path d="M18.8916 1H22.5542L14.5542 10.2048L24 22.6867H16.5783L10.7952 15.1205L4.14458 22.6867H0.481928L9.06024 12.8554L0 1H7.61446L12.8675 7.93976L18.8916 1ZM17.5904 20.4699H19.6145L6.50602 3.07229H4.28916L17.5904 20.4699Z" fill="black"/>
</g>
<defs>
<clipPath id="clip0_1342_10906">
<rect width="24" height="21.6867" fill="white" transform="translate(0 1)"/>
</clipPath>
</defs>
</svg>

<svg width="24" height="24" xmlns="http://www.w3.org/2000/svg">
    <path d="M18.89 1h3.66l-8 9.2 9.45 12.49h-7.42l-5.78-7.57-6.65 7.57H.48l8.58-9.83L0 1h7.61l5.26 6.94L18.89 1zm-1.3 19.47h2.02L6.5 3.07h-2.22l13.3 17.4z" fill="black"/>
</svg>
